X:149
T:Under Towed
M:C|
L:1/8
C:© Paul Gitlitz 1997
R:Reel
B:Giblitz Fancy
N:I nearly drowned at dance camp in Hawaii.
K:Am
"Am"A,CEC "Dm"DFAF|"Em"EGcB "F"AGAd|"Am"A,CEC "Dm"DFAF|"Em"EGcB AE"Dm"D2:|!
|"Dm"d2AF EFDF|EFDc "A7"BAGA|"Dm"d2AF EFDF|"G"BcBc "A7"AGA^c|!
"Dm"d2AF EFDF|EFDc "A7"BAGA|"Dm"d2AF EFDc|"G"BAGF "E7"EDCB,|]
